X:1
T:Title
%%score 1 2 3 4
L:1/8
M:4/2
K:F
V:1 treble nm="Part_1"
V:2 treble-8 nm="Part_2"
V:3 bass nm="Part_3"
V:4 bass nm="Part_4"
V:1
 z16 | z16 | z16 | z16 | C8 F8- | F4 G4 A8 | D6 E2 D4 G4- | G4 F2 E2 D8 | C2 D2 E2 F2 G4 A4 | %9
 G8 A8 | F16 | F8 F8 | G16 | G16 | F12 D4 | D8 B,8 | z4 D4 F6 E2 | D2 C2 D4 B,6 A,2 | C8 z8 | G16 | %20
 G8 F8 | G16 | A6 G2 A4 G4- | G4 F2 _E2 D8 | C4 G4 A4 c4- | c4 _B2 A2 B2 A2 G2 F2 | %26
 E4 G6 F2 E2 D2 | E4 C8 B,4 | C4 E8 D4- | D4 C4 D8 | z16 | z8 C8 | B,4 D8 C2 B,2 | A,8 z4 C4 | %34
 D6 E2 F2 G2 A4 | G4 F8 E4 | A16 | G8 F8 | G16 | F16 | z16 | z16 | z16 | D6 E2 F2 G2 A4 | %44
 B4 c8 B4 | A8 G4 F4 | G8 F6 G2 | A4 B8 A4 | B8 A8 | G4 F4 G8 | F8 z8 | z8 A8 | G4 F4 G8 | F8 z8 | %54
 A8 G4 F4 | G8 F4 A4 | G4 F4 G8 | F8 z4 F4 | E4 D8 C4 | D4 A,4 C8- | C4 D4 B,4 C4 | %61
 A,2 B,2 C2 D2 C4 F4- | F2 G2 A4 B4 c4- | c4 B4 A4 G2 F2 | (3E8 F8 G8 | (3:2:2A8 B16 | %66
 (3:2:2A16 G8 | (3:2:2F8 E16 | (3A12 G4 E8 | (3:2:4F12 E4 E4 D4 | F16 |] %71
V:2
 (F8 A8-) | A4 A2 G2 c8- | c4 B6 A2 G2 F2 | E4 F8 E4 | F8 z8 | z16 | B16 | B8 B8 | c16 | c16 | %10
 z16 | z16 | G4 c6 d2 _e4- | e4 d8 c4 | d6 c2 A8 | B8 z4 B4 | G4 B4 A8 | z4 G4 G6 F2 | %18
 E6 D2 C4 c4- | c4 =B4 c4 C2 D2 | E2 F2 G4 A4 B4- | B2 A2 G2 F2 E8 | c16 | c8 B8 | c16 | d16 | %26
 c8 B4 G4 | c8 z4 F4 | E4 C4 D8 | E8 D8 | C2 D2 E2 F2 E4 F4- | F4 E4 A8 | G4 F8 E4 | F8 z8 | z16 | %35
 z16 | F2 G2 A2 B2 c8- | c4 B8 A4- | A4 G2 F2 E8 | z8 c8 | d16 | c8 B8 | c16 | B8 z8 | z16 | %45
 z8 B8- | B4 c4 d8 | c4 B4 c8 | B8 z4 c4- | c4 A4 G4 c4 | A8 c8- | c8 c8- | c4 A4 G8 | A8 (G8 | %54
 F8) B8- | B8 A4 c4- | c4 d4 B4 c4 | d8 B8 | z8 B4 c4 | B4 c4 F8 | z8 _E8 | D6 E2 F2 G2 A4- | %62
 A2 B2 c4 d4 f4- | f2 e2 e4 f4 e2 d2 | (3:2:2c16 B8 | (3c8 B8 G8 | (3c8 F8 E8 | (3:2:2F8 c16 | %68
 (3A12 B4 c8 | (3:2:2d8 c16 | c16 |] %71
V:3
 z16 | z16 | z16 | z16 | F,16 | F,8 F,8 | G,16 | G,16 | z16 | z16 | A,6 G,2 F,2 E,2 D,4- | %11
 D,2 E,2 F,2 G,2 A,4 B,4- | B,4 G,4 C8 | (B,8 G,8) | A,6 G,2 F,8 | z4 G,6 F,2 _E,2 D,2 | %16
 _E,4 D,6 E,2 F,4- | F,2 _E,2 D,2 C,2 D,8 | C,8 z8 | z16 | z16 | z16 | z4 F,8 _E,4- | %23
 E,4 D,2 C,2 G,8 | G,8 F,4 A,4 | G,16 | G,16 | G,8 F,8 | G,16 | A,16 | C12 B,2 A,2 | B,8 A,8 | %32
 z16 | A,16 | G,8 F,8 | G,16 | F,16 | z16 | z16 | z16 | B,,6 C,2 D,2 E,2 F,2 G,2 | E,4 C,4 D,8 | %42
 C,4 G,6 F,2 F,2 E,2 | G,8 C,8 | D,4 F,6 E,2 E,4 | F,8 _E,8- | E,8 D,6 =E,2 | F,4 G,4 F,8 | %48
 D,4 E,4 F,8 | C,4 F,8 E,4 | A,8 G,4 F,4 | G,8 F,8 | C,4 D,8 C,4 | D,4 A,,4 C,8- | %54
 C,4 F,4 _E,4 D,4 | _E,8 F,8 | z16 | A,8 G,4 F,4 | G,8 F,8 | z8 A,8 | G,4 F,4 G,8 | F,8 z8 | %62
 A,8 G,4 F,4 | G,8 F,8 | (3:2:2A,16 G,8 | (3:2:2F,8 G,16 | (3:2:2F,16 z8 | (3:2:2A,16 G,8 | %68
 (3:2:2F,16 G,8- | G,16 | F,16 |] %71
V:4
 F,,16 | F,,8 F,,8 | G,,16 | G,,16 | z16 | z16 | z16 | z8 G,,8 | A,,2 B,,2 C,2 D,2 E,4 F,4- | %9
 F,4 E,4 F,8 | D,12 B,,4 | B,,4 D,8 B,,4 | _E,8 C,8 | G,6 F,2 _E,8 | D,16 | G,,16 | G,,8 F,,8 | %17
 G,,16 | A,,16 | (G,,8 C,8) | z16 | z8 C,8 | F,,8 z8 | z16 | z16 | z8 G,,8 | %26
 C,4 B,,2 A,,2 G,,4 C,4- | C,4 E,4 D,8 | C,8 (B,,8 | A,,8) z8 | A,,16 | G,,8 F,,8 | G,,16 | F,,16 | %34
 z16 | z8 C,8 | D,4 F,12 | C,4 E,4 D,8 | C,16 | F,,16 | z16 | z8 G,,8 | A,,16 | G,,8 A,,8 | %44
 G,,4 F,,4 G,,8 | F,,8 z8 | z16 | z8 F,,8 | G,,8 F,,8 | z4 F,,4 C,8 | D,12 F,4- | F,4 E,4 F,8 | %52
 z4 F,,4 E,,8 | D,,4 F,,8 E,,4 | F,,8 z8 | z8 z4 F,4 | _E,4 D,4 E,8 | D,8 _E,4 D,4 | %58
 C,4 B,,8 A,,4 | G,,4 F,,4 z4 F,4 | _E,4 D,8 C,4 | D,4 C,2 B,,2 A,,4 F,,4 | F,8 z8 | z16 | z16 | %65
 (3:2:2F,,16 E,,8 | (3:2:5F,,4 G,,4 A,,4 B,,4 C,8 | (3:2:2D,8 C,16 | (3:2:2D,16 C,8 | %69
 (3:2:2B,,8 C,16 | F,,16 |] %71

